X:1
T:Title
%%score { ( 1 3 ) | ( 2 4 ) }
L:1/8
M:6/8
K:Eb
V:1 treble nm="Grand Piano"
V:3 treble 
V:2 bass 
V:4 bass 
V:1
 z3 z2[Q:1/4=100] [GB] | [GB]2 [EG] [Ge]2 [Ac] | [GB]2 G c2 B | A2 F [DB]2 [FA] | %4
[M:5/8] [EG]-[EG]- [EG]3 |[M:1/8] [GB] |[M:3/4] [GB]2 [EG] [Ge]2 [Ac] | [GB]2 G c2 B | =A2 A d2 c | %9
 [DB]6 | G4 z2 | [GB]4 z2 | [Ae]4 z2 | [GB]6 | A2 AA GF | G2 [FA] [GB]2 [_Gc] | [Fd]3 [Ec]3 | B6 | %18
 G4 z2 | [GB]4 z2 | [Ae]4 z2 | [GB]6 | c2 c[Ad] [Ad][Ad] | [Ge]2 [Ge] e2 c | B3 [DAd]3 | %25
[M:5/8] [Ge]-[Ge]- [Ge]3 |] %26
V:2
 z3 z2 [E,E] | [E,E]2 [E,B,] [E,B,]2 [E,C] | [E,E]2 [E,B,E] [A,E]2 [G,B,E] | %3
 [F,B,D]2 [F,B,D] [B,,B,]2 [D,B,] |[M:5/8] [E,B,]-[E,B,]- [E,B,]3 |[M:1/8] [E,E] | %6
[M:3/4] [E,E]2 [E,B,] [E,B,]2 [E,C] | [E,E]2 [E,B,E] [A,E]2 [G,B,E] | %8
 [F,CE]2 [F,CE] [F,B,F]2 [F,=A,E] | [B,,B,]6 | [E,E]E, E,E, EE | E,E, .E,2[K:treble] _G=G | %12
 [E,C]E, .E,2 [DA][E,E] | [E,E]E, E, .E,3 | [B,DF]2 [B,DF][B,DF] [B,E][B,D] | %15
 [E,B,E]2 [E,B,] [E,E]2 [E,B,] | [F,B,]3 [F,=A,]3 | F,G, A,C B,A, | [E,E]E, E,E, EE | %19
 E,E, .E,2[K:treble] _G=G | [E,C]E, .E,2 [DA][E,E] | [E,E]E, E, .E,3 | %22
 [A,EA]2 [A,EA][K:bass][F,B,] [F,B,][F,B,] | [E,B,]2 [E,_D][K:treble] [A,CA]2 [A,EA] | %24
 [B,EG]3[K:bass] [B,,B,]3 |[M:5/8] [E,B,E]-[E,B,E]- [E,B,E]3 |] %26
V:3
 x6 | x6 | x6 | x6 |[M:5/8] x5 |[M:1/8] x |[M:3/4] x6 | x6 | x6 | x6 | z E EE _G=G | EE .E2 =AB | %12
 z C CC d[Ac] | z E E .E3 | x6 | x6 | x6 | DE FA GF | z E EE _G=G | EE .E2 =AB | z C CC d[Ac] | %21
 z E E .E3 | x6 | x6 | x6 |[M:5/8] x5 |] %26
V:4
 x6 | x6 | x6 | x6 |[M:5/8] x5 |[M:1/8] x |[M:3/4] x6 | x6 | x6 | x6 | x6 | x4[K:treble] x2 | %12
 z2 z .E,3 | x6 | x6 | x6 | x6 | B,,6 | x6 | x4[K:treble] x2 | z2 z .E,3 | x6 | x3[K:bass] x3 | %23
 x3[K:treble] x3 | x3[K:bass] x3 |[M:5/8] x5 |] %26

